X: 440
T: Fill the Bumper Fair
N:"Lively"
N:Irish title: lion suas an glucaid
B:O'Neill's 440
Z:Transcribed by henrik.norbeck@mailbox.swipnet.se
M:3/4
L:1/8
K:G
BB/A/ GD G2 | BB/A/ GD FA | BB/A/ GD G2 | FA AD FA ||
GB dc B2 | GB dc Bd | GB dc B2 | FA AD FA |
GB dc B2 | GB dc Bd | ed ef (gf/e/) | dB AG FA ||


